src/actions/24/view-media-title.svg

<svg viewBox="0 0 24 24" xmlns="http://www.w3.org/2000/svg">
 <defs>
  <style type="text/css">.ColorScheme-Text {
        color:#2e3440;
      }</style>
 </defs>
 <path class="ColorScheme-Text" d="m6 4v1 1h-2v3h2v6h-2v3h2v2h1 13v-1-14-1h-14zm1 1h12v2h-12v-1-1zm0 3h12v4 7h-12v-11z" fill="currentColor"/>
</svg>

<svg xmlns="http://www.w3.org/2000/svg" viewBox="0 0 24 24">
  <defs id="defs3051">
    <style type="text/css" id="current-color-scheme">
      .ColorScheme-Text {
        color:#2e3440;
      }
      </style>
  </defs>
 <path style="fill:currentColor;fill-opacity:1;stroke:none" 
     d="M 6 4 L 6 5 L 6 6 L 4 6 L 4 9 L 6 9 L 6 15 L 4 15 L 4 18 L 6 18 L 6 20 L 7 20 L 20 20 L 20 19 L 20 5 L 20 4 L 6 4 z M 7 5 L 19 5 L 19 7 L 7 7 L 7 6 L 7 5 z M 7 8 L 19 8 L 19 12 L 19 19 L 7 19 L 7 8 z "
     class="ColorScheme-Text"
     />
</svg>
